images/days-line.svg

<svg width="754" height="6926" viewBox="0 0 754 6926" fill="none" xmlns="http://www.w3.org/2000/svg">
<path d="M28.0065 18C19.1731 26.5 1.40647 49.4 1.00647 73C0.606475 96.6 18.8398 139.5 28.0065 158C36.5066 178.5 52.5068 229.5 48.5068 269.5C44.5068 309.5 27.5068 452.5 19.5068 519C18.8402 537.667 25.1068 588.3 55.5068 641.5C85.9068 694.7 34.5 837.5 17.0068 908C13.0068 925.833 9.40684 974.1 27.0068 1024.5C44.6068 1074.9 44.6735 1140.5 42.5068 1167C38.6735 1193.5 48.5068 1266.5 118.507 1346.5C188.507 1426.5 286.674 1495.5 327.007 1520C372.007 1537 467.807 1585 491.007 1641C514.207 1697 477.674 1782.67 456.507 1818.5C457.674 1858.5 484.607 1953.5 583.007 2013.5C681.407 2073.5 722.674 2143.83 731.007 2171.5C736.507 2202.5 716.225 2282.34 731.007 2376C744.5 2461.5 723.5 2558 704.507 2558C656.507 2558 729 2706 656.507 2735.5C597.636 2759.46 593 2917.5 567 2969C471 3108 305.707 2935.3 226.507 2910.5C147.307 2885.7 77.5068 2971.5 52.5068 3017.5C41.0068 3068.83 1.25063 3192.04 16.5068 3266.5C33 3347 22 3407.5 40.5068 3416C63.5 3450.5 38.7214 3534.03 19 3578.5C-4.50684 3631.5 16.6735 3724.5 40.5068 3753.5C48.6735 3758.67 16.8881 3837.34 10 3849.5C-7 3879.5 82.5 3889 113 3919C123 3959 253.6 3962.2 336 3919C418.4 3875.8 451 3906.67 461 3906.5C489 3906.67 543.2 3785 572 3829C600.8 3873 667.84 3854.17 680.507 3847C704.674 3843 749.407 3856.9 735.007 3944.5C720.607 4032.1 730.5 4081 737.5 4102C745.276 4125.33 771.807 4173.8 727.007 4225C682.207 4276.2 673.674 4336.67 675.007 4360.5C675.34 4381 658.807 4421.1 590.007 4417.5C521.207 4413.9 452.674 4397.33 427.007 4389.5C406.007 4386.83 351.307 4392.7 300.507 4437.5C249.707 4482.3 173.007 4479.17 141.007 4472C120.507 4466 74.8068 4464.5 56.0068 4506.5C37.2068 4548.5 27.1735 4640.33 24.5068 4681C24.0068 4687 26.3068 4705.9 39.5068 4733.5C52.7068 4761.1 33.5 4813 26.5 4832.5C14.5 4863.83 -15.9 4934.2 16.5 4985C48.9 5035.8 40.5 5094 35.5 5117.5C28.8333 5135 38.1068 5179.5 10.5068 5215.5C-17.0932 5251.5 26.0068 5345.83 51.0068 5388.5C53.8402 5409.5 54.6068 5459.1 35.0068 5489.5C15.4068 5519.9 15.5 5626 29 5677C31.8333 5706.17 10.4622 5789.94 35.0068 5871C61.5 5958.5 31 6061.5 15.5 6135C-24 6251 278.6 6309.7 315 6372.5C351.4 6435.3 514.674 6393.17 525.007 6411.5C534.174 6424.67 562.407 6453.1 602.007 6461.5C641.607 6469.9 596.667 6607.83 615.5 6620C617.5 6641.67 604.7 6685.2 537.5 6686C453.5 6687 417 6702 419.5 6714C422 6726 489 6722.5 478 6745.5C467 6768.5 370.5 6793 370.5 6812.5C370.5 6828.1 396.5 6844.33 409.5 6850.5C416.5 6853 428.9 6867.4 422.5 6905" stroke="#6C6C6C" stroke-width="2" stroke-dasharray="3 8"/>
<circle cx="422" cy="6908" r="16" stroke="#6C6C6C" stroke-width="3" stroke-linecap="round" stroke-linejoin="round"/>
<circle cx="422" cy="6908" r="8" fill="#F47648"/>
<circle cx="26" cy="3337" r="16" stroke="#6C6C6C" stroke-width="3" stroke-linecap="round" stroke-linejoin="round"/>
<circle cx="26" cy="3337" r="8" fill="#F47648"/>
<circle cx="732" cy="4075" r="16" stroke="#6C6C6C" stroke-width="3" stroke-linecap="round" stroke-linejoin="round"/>
<circle cx="732" cy="4075" r="8" fill="#F47648"/>
<circle cx="26" cy="4832" r="16" stroke="#6C6C6C" stroke-width="3" stroke-linecap="round" stroke-linejoin="round"/>
<circle cx="26" cy="4832" r="8" fill="#F47648"/>
<circle cx="26" cy="5663" r="16" stroke="#6C6C6C" stroke-width="3" stroke-linecap="round" stroke-linejoin="round"/>
<circle cx="26" cy="5663" r="8" fill="#F47648"/>
<circle cx="26" cy="875" r="16" stroke="#6C6C6C" stroke-width="3" stroke-linecap="round" stroke-linejoin="round"/>
<circle cx="26" cy="875" r="8" fill="#F47648"/>
<circle cx="26" cy="18" r="16" stroke="#6C6C6C" stroke-width="3" stroke-linecap="round" stroke-linejoin="round"/>
<circle cx="26" cy="18" r="8" fill="#F47648"/>
<circle cx="735" cy="2443" r="16" stroke="#6C6C6C" stroke-width="3" stroke-linecap="round" stroke-linejoin="round"/>
<circle cx="735" cy="2443" r="8" fill="#F47648"/>
</svg>

<svg width="754" height="6926" fill="none" xmlns="http://www.w3.org/2000/svg"><path d="M28.006 18c-8.833 8.5-26.6 31.4-27 55-.4 23.6 17.834 66.5 27 85 8.5 20.5 24.5 71.5 20.5 111.5s-21 183-29 249.5c-.666 18.667 5.6 69.3 36 122.5S34.5 837.5 17.007 908c-4 17.833-7.6 66.1 10 116.5 17.6 50.4 17.667 116 15.5 142.5-3.833 26.5 6 99.5 76.001 179.5 70 80 168.167 149 208.5 173.5 45 17 140.8 65 164 121 23.2 56-13.333 141.67-34.5 177.5 1.167 40 28.1 135 126.5 195s139.667 130.33 148 158c5.5 31-14.782 110.84 0 204.5 13.493 85.5-7.507 182-26.5 182-48 0 24.493 148-48 177.5C597.636 2759.46 593 2917.5 567 2969c-96 139-261.293-33.7-340.493-58.5-79.2-24.8-149 61-174 107-11.5 51.33-51.256 174.54-36 249C33 3347 22 3407.5 40.507 3416 63.5 3450.5 38.72 3534.03 19 3578.5c-23.507 53-2.326 146 21.507 175 8.166 5.17-23.619 83.84-30.507 96-17 30 72.5 39.5 103 69.5 10 40 140.6 43.2 223 0s115-12.33 125-12.5c28 .17 82.2-121.5 111-77.5 28.8 44 95.84 25.17 108.507 18 24.167-4 68.9 9.9 54.5 97.5-14.4 87.6-4.507 136.5 2.493 157.5 7.776 23.33 34.307 71.8-10.493 123-44.8 51.2-53.333 111.67-52 135.5.333 20.5-16.2 60.6-85 57-68.8-3.6-137.333-20.17-163-28-21-2.67-75.7 3.2-126.5 48s-127.5 41.67-159.5 34.5c-20.5-6-66.2-7.5-85 34.5-18.8 42-28.833 133.83-31.5 174.5-.5 6 1.8 24.9 15 52.5s-6.007 79.5-13.007 99c-12 31.33-42.4 101.7-10 152.5s24 109 19 132.5c-6.667 17.5 2.607 62-24.993 98-27.6 36 15.5 130.33 40.5 173 2.833 21 3.6 70.6-16 101C15.407 5519.9 15.5 5626 29 5677c2.833 29.17-18.538 112.94 6.007 194C61.5 5958.5 31 6061.5 15.5 6135-24 6251 278.6 6309.7 315 6372.5c36.4 62.8 199.674 20.67 210.007 39 9.167 13.17 37.4 41.6 77 50 39.6 8.4-5.34 146.33 13.493 158.5 2 21.67-10.8 65.2-78 66-84 1-120.5 16-118 28s69.5 8.5 58.5 31.5-107.5 47.5-107.5 67c0 15.6 26 31.83 39 38 7 2.5 19.4 16.9 13 54.5" stroke="#6C6C6C" stroke-width="2" stroke-dasharray="3 8"/><circle cx="422" cy="6908" r="16" stroke="#6C6C6C" stroke-width="3" stroke-linecap="round" stroke-linejoin="round"/><circle cx="422" cy="6908" r="8" fill="#F47648"/><circle cx="26" cy="3337" r="16" stroke="#6C6C6C" stroke-width="3" stroke-linecap="round" stroke-linejoin="round"/><circle cx="26" cy="3337" r="8" fill="#F47648"/><circle cx="732" cy="4075" r="16" stroke="#6C6C6C" stroke-width="3" stroke-linecap="round" stroke-linejoin="round"/><circle cx="732" cy="4075" r="8" fill="#F47648"/><circle cx="26" cy="4832" r="16" stroke="#6C6C6C" stroke-width="3" stroke-linecap="round" stroke-linejoin="round"/><circle cx="26" cy="4832" r="8" fill="#F47648"/><circle cx="26" cy="5663" r="16" stroke="#6C6C6C" stroke-width="3" stroke-linecap="round" stroke-linejoin="round"/><circle cx="26" cy="5663" r="8" fill="#F47648"/><circle cx="26" cy="875" r="16" stroke="#6C6C6C" stroke-width="3" stroke-linecap="round" stroke-linejoin="round"/><circle cx="26" cy="875" r="8" fill="#F47648"/><circle cx="26" cy="18" r="16" stroke="#6C6C6C" stroke-width="3" stroke-linecap="round" stroke-linejoin="round"/><circle cx="26" cy="18" r="8" fill="#F47648"/><circle cx="735" cy="2443" r="16" stroke="#6C6C6C" stroke-width="3" stroke-linecap="round" stroke-linejoin="round"/><circle cx="735" cy="2443" r="8" fill="#F47648"/></svg>
